X: 768
T: Nao shengchan
L: 1/8
M: 2/4
K: F
f dc2 [I:setbarnb 1]| 
c FG2 | 
f d c B | 
c FG2 | 
c c f d | 
c f c B | 
FB2G | 
F DC2 | 
f d c f | 
c BG2 | 
c B G D | 
C4 |]

@@@ Tune index: 9642
